X:1
T:Title
%%score { 1 | 2 }
L:1/8
Q:1/4=100
M:4/4
K:Eb
V:1 treble nm="Grand Piano"
V:2 bass 
V:1
 [GB]3 [_G=A] [_Ac][=GB]GE | D A3- A2 z2 | [FA]3 [DF] [Fd][Ac][GB][FA] | [EG]6 z2 | %4
w: Paul~Rader * * * * *||||
 [GB]3 [GB] [GB][EG][Ge][EBd] | [EBd] [EAc]3- [EAc]2 z2 | [EGB]3 [EAc] [EGB][B,EG][A,DF][B,DG] | %7
w: |||
 [G,B,E]6 z2 |[M:3/4] [GB]3 [Ac] [GB][EG] | [Ge]4 z2 | [GB]3 [Ac] [GB]G | F4 z2 | %12
w: |||||
 [GB]3 [Ac] [GB][EG] | [Ge][Bd] c2 e2 | G3 A [EG][DF] | E4 z2 |] %16
w: ||||
V:2
 [E,E]3 [E,E] [E,E][E,E][E,B,E][E,G,B,] | [F,A,B,] [F,B,D]3- [F,B,D]2 z2 | %2
 [B,,B,]3 [B,,B,] [B,,B,][B,,B,][B,,B,][B,,B,] | [E,B,]6 z2 | [E,E]3 [E,E] [E,E][E,B,][E,B,]G, | %5
 A, A,3- A,2 z2 | B,,3 B,, B,,B,,B,,B,, | E,6 z2 |[M:3/4] [E,E]3 [E,E] [E,E][E,B,] | [E,B,]4 z2 | %10
 [E,E]3 [E,E] [E,E][E,B,E] | [B,D]4 z2 | [E,E]3 [E,E] [E,E][E,B,] | %13
 [E,B,][K:treble][G,E] [A,EA]2 [=A,CE]2 | [B,E]3 [B,F][K:bass] [B,,B,][B,,A,] | [E,G,]4 z2 |] %16

